src/assets/images/1-favicone.svg

<svg width="112" height="152" viewBox="0 0 112 152" fill="none" xmlns="http://www.w3.org/2000/svg">
<path d="M78.5778 14.2424C45.3868 4.8043 27.2077 32.9388 22.1764 48.3999C22.127 48.5517 22.0992 48.6966 22.0885 48.8559C21.0457 64.4741 24.475 97.6417 46.5172 107.251C68.5608 116.861 93.189 90.9448 102.902 76.5823C103 76.4379 103.072 76.2927 103.127 76.1275C108.815 59.2684 111.769 23.6804 78.5778 14.2424Z" fill="#81EC40"/>
<path d="M34.9083 142.914L33.0375 142.187C32.0267 141.794 31.513 140.668 31.8795 139.647L53.2416 80.1556L77.8619 9.55172L55.1007 81.7897L37.5518 141.613C37.2219 142.737 36.0005 143.338 34.9083 142.914Z" fill="#81EC40" stroke="black" stroke-width="17"/>
<path d="M23.3726 49.4641C13.4841 78.2378 33.8847 99.0368 45.5318 105.992C45.6833 106.082 45.8368 106.146 46.0072 106.192C61.613 110.377 88.3839 109.785 100.306 76.7736C112.292 43.5836 87.2985 11.9677 79.7528 9.0844C72.2072 6.20114 35.8124 13.2667 23.3726 49.4641Z" stroke="black" stroke-width="16"/>
</svg>

<svg width="112" height="152" fill="none" xmlns="http://www.w3.org/2000/svg"><path d="M78.578 14.242C45.387 4.804 27.208 32.94 22.176 48.4a1.82 1.82 0 00-.087.456c-1.043 15.618 2.386 48.786 24.428 58.395 22.044 9.61 46.672-16.306 56.385-30.669.098-.144.17-.29.225-.454 5.688-16.86 8.642-52.448-24.55-61.886z" fill="#81EC40"/><path d="M34.908 142.914l-1.87-.727a2 2 0 01-1.158-2.54l21.362-59.491 24.62-70.604L55.1 81.79l-17.55 59.823a2 2 0 01-2.643 1.301z" fill="#81EC40" stroke="#000" stroke-width="17"/><path d="M23.373 49.464c-9.889 28.774 10.512 49.573 22.159 56.528.151.09.305.154.475.2 15.606 4.185 42.377 3.593 54.299-29.418 11.986-33.19-13.007-64.806-20.553-67.69-7.546-2.883-43.94 4.183-56.38 40.38z" stroke="#000" stroke-width="16"/></svg>
